assets/svg/sec3_background.svg

<svg fill="none" height="116" viewBox="0 0 834 116" width="834" xmlns="http://www.w3.org/2000/svg"><path d="m963.929 2.16346.895-.70633-.706-.894812-.895.706322zm-221.928 104.96054-.293-1.101-1.101.292.292 1.102zm222.87-103.76744.706.89481.895-.70632-.706-.89482zm-222.48 105.23744-1.102.292.293 1.102 1.101-.293zm-639.758 4.387 1.109.267.266-1.109-1.108-.266zm-232.17-104.0595.695-.90376-.904-.69484-.695.90376zm231.815 105.5375-.267 1.108 1.109.267.266-1.109zm-232.741-104.3325-.904-.69482-.695.90382.904.6948zm1093.686-8.85786c-58.431 46.12276-132.249 81.05636-221.515 104.75436l.585 2.203c89.498-23.7588 163.616-58.8116 222.342-105.16772zm2.543 1.38159-.942-1.1931-1.79 1.41266.942 1.19309zm-223.083 107.04477c89.652-23.7997 163.97-58.932 222.894-105.44363l-1.412-1.78963c-58.629 46.27826-132.647 81.29146-222.067 105.03026zm-1.784-2.278.39 1.469 2.204-.585-.39-1.469zm-637.999 4.456c-93.83311-22.5628-171.0574-57.1992-231.742-103.85526l-1.39 1.80753c60.9951 46.89443 138.53245 81.64563 232.599 104.26373zm.486 2.852.356-1.477-2.217-.533-.356 1.477zm-234.544-103.6947c61.2014 47.0534 138.94747 81.881 233.169 104.5367l.533-2.216c-93.98808-22.6004-171.4211-57.3132-232.312-104.12824zm.717-2.80364-.926 1.20502 1.808 1.38972.926-1.20505z" fill="#0bd8a2"/></svg>

<svg width="834" height="116" viewBox="0 0 834 116" fill="none" xmlns="http://www.w3.org/2000/svg">
<path d="M963.929 2.16346L964.824 1.45713L964.118 0.562318L963.223 1.26864L963.929 2.16346ZM742.001 107.124L741.708 106.023L740.607 106.315L740.899 107.417L742.001 107.124ZM964.871 3.35656L965.577 4.25137L966.472 3.54505L965.766 2.65023L964.871 3.35656ZM742.391 108.594L741.289 108.886L741.582 109.988L742.683 109.695L742.391 108.594ZM102.633 112.981L103.742 113.248L104.008 112.139L102.9 111.873L102.633 112.981ZM-129.537 8.9215L-128.842 8.01774L-129.746 7.3229L-130.441 8.22666L-129.537 8.9215ZM102.278 114.459L102.011 115.567L103.12 115.834L103.386 114.725L102.278 114.459ZM-130.463 10.1265L-131.367 9.43168L-132.062 10.3355L-131.158 11.0303L-130.463 10.1265ZM963.223 1.26864C904.792 47.3914 830.974 82.325 741.708 106.023L742.293 108.226C831.791 84.4672 905.909 49.4144 964.635 3.05828L963.223 1.26864ZM965.766 2.65023L964.824 1.45713L963.034 2.86979L963.976 4.06288L965.766 2.65023ZM742.683 109.695C832.335 85.8953 906.653 50.763 965.577 4.25137L964.165 2.46174C905.536 48.74 831.518 83.7532 742.098 107.492L742.683 109.695ZM740.899 107.417L741.289 108.886L743.493 108.301L743.103 106.832L740.899 107.417ZM102.9 111.873C9.06689 89.3102 -68.1574 54.6738 -128.842 8.01774L-130.232 9.82527C-69.2369 56.7197 8.30045 91.4709 102.367 114.089L102.9 111.873ZM103.386 114.725L103.742 113.248L101.525 112.715L101.169 114.192L103.386 114.725ZM-131.158 11.0303C-69.9566 58.0837 7.78947 92.9113 102.011 115.567L102.544 113.351C8.55592 90.7506 -68.8771 56.0378 -129.768 9.22276L-131.158 11.0303ZM-130.441 8.22666L-131.367 9.43168L-129.559 10.8214L-128.633 9.61635L-130.441 8.22666Z" fill="#0BD8A2"/>
</svg>
